src/pos-icons/bank-transfer-in.svg

<svg height="24" viewBox="0 0 24 24" width="24" xmlns="http://www.w3.org/2000/svg"><path d="m2 15v-3h3v-2l4 3.5-4 3.5v-2zm20-6.3v1.3h-12v-1.3l6-3.7zm-12 8.3h12v2h-12zm5-6h2v5h-2zm-4 0h2v5h-2zm8 0h2v5h-2z"/></svg>

<?xml version="1.0" encoding="UTF-8"?><!DOCTYPE svg PUBLIC "-//W3C//DTD SVG 1.1//EN" "http://www.w3.org/Graphics/SVG/1.1/DTD/svg11.dtd"><svg xmlns="http://www.w3.org/2000/svg" xmlns:xlink="http://www.w3.org/1999/xlink" version="1.1" id="mdi-bank-transfer-in" width="24" height="24" viewBox="0 0 24 24"><path d="M2,15V12H5V10L9,13.5L5,17V15H2M22,8.7V10H10V8.7L16,5L22,8.7M10,17H22V19H10V17M15,11H17V16H15V11M11,11H13V16H11V11M19,11H21V16H19V11Z" /></svg>
